Numix-Circle/48x48/apps/vncaddrbook.svg

<?xml version="1.0" encoding="UTF-8" standalone="no"?>
<svg
   xmlns:dc="http://purl.org/dc/elements/1.1/"
   xmlns:cc="http://creativecommons.org/ns#"
   xmlns:rdf="http://www.w3.org/1999/02/22-rdf-syntax-ns#"
   xmlns:svg="http://www.w3.org/2000/svg"
   xmlns="http://www.w3.org/2000/svg"
   xmlns:xlink="http://www.w3.org/1999/xlink"
   xmlns:sodipodi="http://sodipodi.sourceforge.net/DTD/sodipodi-0.dtd"
   xmlns:inkscape="http://www.inkscape.org/namespaces/inkscape"
   width="48"
   viewBox="0 0 13.546667 13.546667"
   height="48"
   id="svg2"
   version="1.1"
   inkscape:version="0.91 r"
   sodipodi:docname="vncaddrbook.svg">
  <metadata
     id="metadata331">
    <rdf:RDF>
      <cc:Work
         rdf:about="">
        <dc:format>image/svg+xml</dc:format>
        <dc:type
           rdf:resource="http://purl.org/dc/dcmitype/StillImage" />
        <dc:title />
      </cc:Work>
    </rdf:RDF>
  </metadata>
  <sodipodi:namedview
     pagecolor="#ffffff"
     bordercolor="#666666"
     borderopacity="1"
     objecttolerance="10"
     gridtolerance="10"
     guidetolerance="10"
     inkscape:pageopacity="0"
     inkscape:pageshadow="2"
     inkscape:window-width="1366"
     inkscape:window-height="747"
     id="namedview329"
     showgrid="true"
     inkscape:zoom="12.614422"
     inkscape:cx="9.9767011"
     inkscape:cy="24.142498"
     inkscape:window-x="0"
     inkscape:window-y="21"
     inkscape:window-maximized="1"
     inkscape:current-layer="layer3"
     inkscape:snap-to-guides="false"
     showguides="true"
     inkscape:guide-bbox="true">
    <inkscape:grid
       type="xygrid"
       id="grid3308" />
  </sodipodi:namedview>
  <defs
     id="defs4">
    <linearGradient
       id="linearGradient4073">
      <stop
         style="stop-color:#bdd1d1;stop-opacity:1"
         offset="0"
         id="stop4075" />
      <stop
         style="stop-color:#b1c9c9;stop-opacity:1"
         offset="1"
         id="stop4077" />
    </linearGradient>
    <radialGradient
       xlink:href="#0-6"
       id="6-9"
       cx="-3"
       cy="24"
       r="10"
       gradientUnits="userSpaceOnUse" />
    <linearGradient
       id="0-6">
      <stop
         stop-color="#91b0c7"
         id="stop7-0" />
      <stop
         offset="1"
         stop-color="#91b0c7"
         stop-opacity="0"
         id="stop9-3" />
    </linearGradient>
    <radialGradient
       r="10"
       cy="24"
       cx="-3"
       gradientUnits="userSpaceOnUse"
       id="radialGradient3922"
       xlink:href="#0-6"
       inkscape:collect="always" />
    <linearGradient
       inkscape:collect="always"
       xlink:href="#linearGradient4073"
       id="linearGradient4079"
       x1="-25.499998"
       y1="15"
       x2="-25.499998"
       y2="11"
       gradientUnits="userSpaceOnUse" />
    <linearGradient
       gradientTransform="matrix(0,-1,1,0,-0.56055577,34.098252)"
       gradientUnits="userSpaceOnUse"
       x2="47"
       x1="1"
       id="linearGradient3764">
      <stop
         id="stop7"
         stop-opacity="1"
         stop-color="#e4e4e4" />
      <stop
         id="stop9"
         stop-opacity="1"
         stop-color="#eee"
         offset="1" />
    </linearGradient>
    <clipPath
       id="clipPath-521565884">
      <g
         id="g12"
         transform="translate(0,-1004.3622)">
        <path
           id="path14"
           fill="#1890d0"
           transform="matrix(15.333333,0,0,11.5,414.99999,878.8622)"
           d="m -24 13 c 0 1.105 -0.672 2 -1.5 2 -0.828 0 -1.5 -0.895 -1.5 -2 0 -1.105 0.672 -2 1.5 -2 0.828 0 1.5 0.895 1.5 2 z" />
      </g>
    </clipPath>
    <clipPath
       id="clipPath-532422548">
      <g
         id="g17"
         transform="translate(0,-1004.3622)">
        <path
           id="path19"
           fill="#1890d0"
           transform="matrix(15.333333,0,0,11.5,414.99999,878.8622)"
           d="m -24 13 c 0 1.105 -0.672 2 -1.5 2 -0.828 0 -1.5 -0.895 -1.5 -2 0 -1.105 0.672 -2 1.5 -2 0.828 0 1.5 0.895 1.5 2 z" />
      </g>
    </clipPath>
  </defs>
  <g
     inkscape:groupmode="layer"
     id="layer1"
     inkscape:label="Shadow"
     sodipodi:insensitive="true">
    <path
       style="opacity:0.05;fill:#000000;fill-opacity:1;stroke:none"
       d="M 25,2 C 12.297451,2 2,12.297451 2,25 2,31.367153 4.6007106,37.116628 8.78125,41.28125 12.865755,44.99361 18.29568,47.25 24.25,47.25 c 12.702549,0 23,-10.297451 23,-23 0,-5.95432 -2.25639,-11.384245 -5.96875,-15.46875 C 37.116628,4.6007105 31.367153,2 25,2 z M 41.28125,8.78125 C 45.135604,12.894061 47.5,18.418655 47.5,24.5 c 0,12.702549 -10.297451,23 -23,23 C 18.418655,47.5 12.894061,45.135604 8.78125,41.28125 12.940939,45.4251 18.664604,48 25,48 37.702549,48 48,37.702549 48,25 48,18.664604 45.4251,12.940939 41.28125,8.78125 z"
       transform="scale(0.28222223,0.28222223)"
       id="path3978"
       inkscape:connector-curvature="0" />
    <path
       style="opacity:0.1;fill:#000000;fill-opacity:1;stroke:none"
       d="M 41.28125,8.78125 C 44.99361,12.865755 47.25,18.29568 47.25,24.25 c 0,12.702549 -10.297451,23 -23,23 -5.95432,0 -11.384245,-2.25639 -15.46875,-5.96875 C 12.894061,45.135604 18.418655,47.5 24.5,47.5 c 12.702549,0 23,-10.297451 23,-23 0,-6.081345 -2.364396,-11.605939 -6.21875,-15.71875 z"
       transform="scale(0.28222223,0.28222223)"
       id="path3976"
       inkscape:connector-curvature="0" />
    <path
       transform="matrix(4.3274074,0,0,3.2455556,117.19278,-35.348334)"
       d="m -24,13 a 1.5,2 0 1 1 -3,0 1.5,2 0 1 1 3,0 z"
       sodipodi:ry="2"
       sodipodi:rx="1.5"
       sodipodi:cy="13"
       sodipodi:cx="-25.5"
       id="path3952"
       style="opacity:0.2;fill:#000000;fill-opacity:1;stroke:none"
       sodipodi:type="arc" />
  </g>
  <g
     inkscape:groupmode="layer"
     id="layer2"
     inkscape:label="Base">
    <path
       sodipodi:type="arc"
       style="opacity:1;fill:url(#linearGradient4079);fill-opacity:1.0;stroke:none"
       id="path3942"
       sodipodi:cx="-25.5"
       sodipodi:cy="13"
       sodipodi:rx="1.5"
       sodipodi:ry="2"
       d="m -24,13 a 1.5,2 0 1 1 -3,0 1.5,2 0 1 1 3,0 z"
       transform="matrix(4.3274075,0,0,3.2455556,117.12222,-35.418889)" />
    <path
       style="opacity:0.1;fill:#000000;fill-opacity:1;stroke:none"
       d="M 40.03125 7.53125 C 43.74361 11.615755 46 17.04568 46 23 C 46 35.702549 35.702549 46 23 46 C 17.04568 46 11.615755 43.74361 7.53125 40.03125 C 11.709416 44.322508 17.537578 47 24 47 C 36.702549 47 47 36.702549 47 24 C 47 17.537578 44.322508 11.709416 40.03125 7.53125 z "
       id="path4027"
       transform="scale(0.28222223,0.28222223)" />
    <use
       id="use102"
       xlink:href="#7"
       transform="matrix(0.39511112,0,0,0.39511112,7.9586669,-2.4271114)"
       style="opacity:0.2"
       x="0"
       y="0"
       width="744.09448"
       height="1052.3622" />
    <use
       id="use104-7"
       xlink:href="#7"
       transform="matrix(0.39511112,0,0,0.39511112,7.9586669,-2.7093336)"
       style="fill:#f9f9f9"
       x="0"
       y="0"
       width="744.09448"
       height="1052.3622" />
    <use
       id="use108-3"
       xlink:href="#7"
       transform="matrix(0.31044445,0,0,0.31044445,7.7046669,-0.67733354)"
       style="fill:#355464"
       x="0"
       y="0"
       width="744.09448"
       height="1052.3622" />
    <use
       id="use110"
       xlink:href="#7"
       transform="matrix(0.22577778,0,0,0.22577778,7.4506669,1.3546665)"
       style="fill:#566d80"
       x="0"
       y="0"
       width="744.09448"
       height="1052.3622" />
    <use
       id="use112"
       xlink:href="#7"
       transform="matrix(0.16933334,0,0,0.16933334,7.2813335,2.7093332)"
       style="fill:#355464"
       x="0"
       y="0"
       width="744.09448"
       height="1052.3622" />
    <use
       id="use114"
       xlink:href="#7"
       transform="matrix(0.05644445,0,0,0.05644445,6.9426669,4.5719999)"
       style="fill:url(#6-9)"
       x="0"
       y="0"
       width="744.09448"
       height="1052.3622" />
    <use
       id="use116"
       xlink:href="#7"
       transform="matrix(0.02822222,0,0,0.02822222,6.8580002,6.6604444)"
       style="fill:url(#radialGradient3922)"
       x="0"
       y="0"
       width="744.09448"
       height="1052.3622" />
  </g>
  <g
     inkscape:groupmode="layer"
     id="layer3"
     inkscape:label="Symbol">
    <g
       id="g4149"
       transform="translate(0.2822222,0.28222215)"
       style="opacity:0.1">
      <rect
         style="fill:#000000;fill-opacity:1;stroke:none"
         id="rect4131"
         width="0.84666723"
         height="1.1288891"
         x="9.3133326"
         y="8.1844444"
         rx="0.25"
         ry="0.25" />
      <rect
         ry="0.25"
         rx="0.25"
         y="6.20889"
         x="9.3133326"
         height="1.128888"
         width="0.84666723"
         id="rect4133"
         style="fill:#000000;fill-opacity:1;stroke:none" />
      <rect
         style="fill:#000000;fill-opacity:1;stroke:none"
         id="rect4135"
         width="0.84666699"
         height="1.1288887"
         x="9.3133326"
         y="4.2333336"
         rx="0.25"
         ry="0.25" />
      <rect
         style="fill:#000000;fill-opacity:1;stroke:none"
         id="rect4137"
         width="5.6444445"
         height="6.7733335"
         x="3.9511113"
         y="3.3866668"
         rx="1"
         ry="1" />
      <rect
         ry="0.15000001"
         rx="0.15000001"
         y="5.3622227"
         x="3.3866668"
         height="0.56444448"
         width="1.1288887"
         id="rect4139"
         style="fill:#000000;fill-opacity:1;stroke:none" />
      <rect
         style="fill:#000000;fill-opacity:1;stroke:none"
         id="rect4141"
         width="1.1288887"
         height="0.56444448"
         x="3.3866668"
         y="6.4911118"
         rx="0.15000001"
         ry="0.15000001" />
      <rect
         ry="0.15000001"
         rx="0.15000001"
         y="7.6200008"
         x="3.3866668"
         height="0.56444448"
         width="1.1288887"
         id="rect4143"
         style="fill:#000000;fill-opacity:1;stroke:none" />
      <rect
         style="fill:#000000;fill-opacity:1;stroke:none"
         id="rect4145"
         width="1.1288887"
         height="0.56444448"
         x="3.3866668"
         y="8.7488899"
         rx="0.15000001"
         ry="0.15000001" />
      <rect
         style="fill:#000000;fill-opacity:1;stroke:none"
         id="rect4147"
         width="1.1288887"
         height="0.56444448"
         x="3.3866668"
         y="4.2333336"
         rx="0.15000001"
         ry="0.15000001" />
    </g>
    <rect
       style="fill:#4747d8;fill-opacity:1;stroke:none"
       id="rect4091"
       width="0.84666723"
       height="1.1288891"
       x="9.3133326"
       y="8.1844444"
       rx="0.25"
       ry="0.25" />
    <rect
       ry="0.25"
       rx="0.25"
       y="6.20889"
       x="9.3133326"
       height="1.128888"
       width="0.84666723"
       id="rect4089"
       style="fill:#49d74a;fill-opacity:1;stroke:none" />
    <rect
       style="fill:#f13e3e;fill-opacity:1;stroke:none"
       id="rect4087"
       width="0.84666699"
       height="1.1288887"
       x="9.3133326"
       y="4.2333336"
       rx="0.25"
       ry="0.25" />
    <rect
       style="fill:#f9f9f9;fill-opacity:1;stroke:none"
       id="rect3293"
       width="5.6444445"
       height="6.7733335"
       x="3.9511113"
       y="3.3866668"
       rx="1"
       ry="1" />
    <path
       style="fill:#3a3a3a;fill-opacity:1;stroke:none"
       d="m 4.9477084,3.3866668 c -0.554,2e-7 -0.9965972,0.4425972 -0.9965972,0.9965972 l 0,4.780139 c 0,0.554 0.4425972,0.996597 0.9965972,0.996597 l 0.1322917,0 0,-6.7733333 z"
       id="rect4063"
       inkscape:connector-curvature="0"
       sodipodi:nodetypes="ssssccs" />
    <rect
       ry="0.15000001"
       rx="0.15000001"
       y="5.3622227"
       x="3.3866668"
       height="0.56444448"
       width="1.1288887"
       id="rect4116"
       style="fill:#81584a;fill-opacity:1;stroke:none" />
    <rect
       style="fill:#81584a;fill-opacity:1;stroke:none"
       id="rect4118"
       width="1.1288887"
       height="0.56444448"
       x="3.3866668"
       y="6.4911118"
       rx="0.15000001"
       ry="0.15000001" />
    <rect
       ry="0.15000001"
       rx="0.15000001"
       y="7.6200008"
       x="3.3866668"
       height="0.56444448"
       width="1.1288887"
       id="rect4120"
       style="fill:#81584a;fill-opacity:1;stroke:none" />
    <rect
       style="fill:#81584a;fill-opacity:1;stroke:none"
       id="rect4122"
       width="1.1288887"
       height="0.56444448"
       x="3.3866668"
       y="8.7488899"
       rx="0.15000001"
       ry="0.15000001" />
    <rect
       style="fill:#81584a;fill-opacity:1;stroke:none"
       id="rect4114"
       width="1.1288887"
       height="0.56444448"
       x="3.3866668"
       y="4.2333336"
       rx="0.15000001"
       ry="0.15000001" />
    <g
       id="g33"
       transform="matrix(0.28222222,0,0,0.28222222,-11.755109,-0.32861598)" />
    <g
       id="g4250-0"
       transform="matrix(0,-0.51162791,0.51162791,0,4.3227028,4.5067992)"
       style="fill:#000000;fill-opacity:1;opacity:0.12">
      <path
         inkscape:connector-curvature="0"
         d="m -8.9328868,3.4109552 1.0549235,0 1.4440318,4.3244332 1.4212206,-4.3244332 1.0663238,0 -1.9812609,5.6921261 c -0.079768,0.2328598 -0.2588218,0.373908 -0.5030244,0.3755043 -0.2458334,0.002 -0.4297982,-0.1409923 -0.5112013,-0.3755043 L -8.9328868,3.4109552"
         style="fill:#000000;fill-opacity:1;fill-rule:evenodd;stroke:none"
         id="path43266-9" />
      <path
         inkscape:connector-curvature="0"
         d="m -3.8877701,6.2939217 0,-1.6185873 c 0,-0.7100866 0.7000297,-1.2742164 1.44565,-1.2643792 0.7358383,0.011498 1.4082023,0.5624855 1.4082023,1.2643792 l 0,1.6185873 -0.6967748,0 0,-1.5136492 c 0,-0.3706193 -0.3370001,-0.6395553 -0.7114275,-0.6444784 -0.3793111,-0.00658 -0.7342202,0.2656673 -0.7342202,0.6444784 l 0,1.5136492 -0.7114298,0"
         style="fill:#000000;fill-opacity:1;fill-rule:evenodd;stroke:none"
         id="path43268-4" />
      <path
         inkscape:connector-curvature="0"
         d="m -1.0306646,9.4785856 -1.6068181,0 c -0.7032885,0 -1.2649375,-0.7051269 -1.2535473,-1.4578779 0.0098,-0.7395622 0.5584198,-1.4168569 1.2535473,-1.4168569 l 1.6068181,0 0,0.7002577 -1.5026081,0 c -0.3679399,0 -0.6332968,0.3410932 -0.6398077,0.7165992 -0.00656,0.3837731 0.2637209,0.7412775 0.6398077,0.7412775 l 1.5026081,0 0,0.7166004"
         style="fill:#000000;fill-opacity:1;fill-rule:evenodd;stroke:none"
         id="path43270-7" />
    </g>
    <g
       id="g4250"
       transform="matrix(0,-0.51162791,0.51162791,0,4.0404805,4.2245181)">
      <path
         inkscape:connector-curvature="0"
         d="m -8.9328868,3.4109552 1.0549235,0 1.4440318,4.3244332 1.4212206,-4.3244332 1.0663238,0 -1.9812609,5.6921261 c -0.079768,0.2328598 -0.2588218,0.373908 -0.5030244,0.3755043 -0.2458334,0.002 -0.4297982,-0.1409923 -0.5112013,-0.3755043 L -8.9328868,3.4109552"
         style="fill:#f13e3e;fill-opacity:1;fill-rule:evenodd;stroke:none"
         id="path43266" />
      <path
         inkscape:connector-curvature="0"
         d="m -3.8877701,6.2939217 0,-1.6185873 c 0,-0.7100866 0.7000297,-1.2742164 1.44565,-1.2643792 0.7358383,0.011498 1.4082023,0.5624855 1.4082023,1.2643792 l 0,1.6185873 -0.6967748,0 0,-1.5136492 c 0,-0.3706193 -0.3370001,-0.6395553 -0.7114275,-0.6444784 -0.3793111,-0.00658 -0.7342202,0.2656673 -0.7342202,0.6444784 l 0,1.5136492 -0.7114298,0"
         style="fill:#49d74a;fill-opacity:1;fill-rule:evenodd;stroke:none"
         id="path43268" />
      <path
         inkscape:connector-curvature="0"
         d="m -1.0306646,9.4785856 -1.6068181,0 c -0.7032885,0 -1.2649375,-0.7051269 -1.2535473,-1.4578779 0.0098,-0.7395622 0.5584198,-1.4168569 1.2535473,-1.4168569 l 1.6068181,0 0,0.7002577 -1.5026081,0 c -0.3679399,0 -0.6332968,0.3410932 -0.6398077,0.7165992 -0.00656,0.3837731 0.2637209,0.7412775 0.6398077,0.7412775 l 1.5026081,0 0,0.7166004"
         style="fill:#4747d8;fill-opacity:1;fill-rule:evenodd;stroke:none"
         id="path43270" />
    </g>
  </g>
</svg>

<svg xmlns="http://www.w3.org/2000/svg" width="48" viewBox="0 0 13.546667 13.546667" height="48">
 <defs>
  <linearGradient id="linearGradient4079" y1="15" x2="0" y2="11" gradientUnits="userSpaceOnUse">
   <stop style="stop-color:#bdd1d1;stop-opacity:1"/>
   <stop offset="1" style="stop-color:#b1c9c9;stop-opacity:1"/>
  </linearGradient>
 </defs>
 <g>
  <path d="m 25 2 c -12.703 0 -23 10.297 -23 23 0 6.367 2.601 12.12 6.781 16.281 4.085 3.712 9.514 5.969 15.469 5.969 c 12.703 0 23 -10.297 23 -23 0 -5.954 -2.256 -11.384 -5.969 -15.469 c -4.165 -4.181 -9.914 -6.781 -16.281 -6.781 z m 16.281 6.781 c 3.854 4.113 6.219 9.637 6.219 15.719 c 0 12.703 -10.297 23 -23 23 c -6.081 0 -11.606 -2.364 -15.719 -6.219 4.16 4.144 9.883 6.719 16.219 6.719 12.703 0 23 -10.297 23 -23 0 -6.335 -2.575 -12.06 -6.719 -16.219 z" transform="scale(0.28222223,0.28222223)" style="fill:#000;opacity:0.05;fill-opacity:1;stroke:none"/>
  <path d="m 41.28 8.781 c 3.712 4.085 5.969 9.514 5.969 15.469 c 0 12.703 -10.297 23 -23 23 -5.954 0 -11.384 -2.256 -15.469 -5.969 c 4.113 3.854 9.637 6.219 15.719 6.219 c 12.703 0 23 -10.297 23 -23 0 -6.081 -2.364 -11.606 -6.219 -15.719 z" transform="scale(0.28222223,0.28222223)" style="fill:#000;opacity:0.1;fill-opacity:1;stroke:none"/>
  <path transform="matrix(4.3274074,0,0,3.2455556,117.19278,-35.348334)" d="m -24 13 a 1.5 2 0 1 1 -3 0 1.5 2 0 1 1 3 0 z" style="fill:#000;opacity:0.2;fill-opacity:1;stroke:none"/>
 </g>
 <g>
  <path d="m -24 13 a 1.5 2 0 1 1 -3 0 1.5 2 0 1 1 3 0 z" transform="matrix(4.3274075,0,0,3.2455556,117.12222,-35.418889)" style="fill:url(#linearGradient4079);opacity:1;fill-opacity:1;stroke:none"/>
  <path d="m 40.03 7.531 c 3.712 4.085 5.969 9.514 5.969 15.469 c 0 12.703 -10.297 23 -23 23 c -5.954 0 -11.384 -2.256 -15.469 -5.969 c 4.178 4.291 10.01 6.969 16.469 6.969 c 12.703 0 23 -10.297 23 -23 c 0 -6.462 -2.677 -12.291 -6.969 -16.469 z" transform="scale(0.28222223,0.28222223)" style="fill:#000;opacity:0.1;fill-opacity:1;stroke:none"/>
 </g>
 <g>
  <g transform="translate(0.2822222,0.28222215)" style="opacity:0.1">
   <rect width="0.847" height="1.129" x="9.313" y="8.184" rx="0.25" style="fill:#000;fill-opacity:1;stroke:none"/>
   <rect rx="0.25" y="6.209" x="9.313" height="1.129" width="0.847" style="fill:#000;fill-opacity:1;stroke:none"/>
   <rect width="0.847" height="1.129" x="9.313" y="4.233" rx="0.25" style="fill:#000;fill-opacity:1;stroke:none"/>
   <rect width="5.644" height="6.773" x="3.951" y="3.387" rx="1" style="fill:#000;fill-opacity:1;stroke:none"/>
   <rect rx="0.15" y="5.362" x="3.387" height="0.564" width="1.129" style="fill:#000;fill-opacity:1;stroke:none"/>
   <rect width="1.129" height="0.564" x="3.387" y="6.491" rx="0.15" style="fill:#000;fill-opacity:1;stroke:none"/>
   <rect rx="0.15" y="7.62" x="3.387" height="0.564" width="1.129" style="fill:#000;fill-opacity:1;stroke:none"/>
   <rect width="1.129" height="0.564" x="3.387" y="8.749" rx="0.15" style="fill:#000;fill-opacity:1;stroke:none"/>
   <rect width="1.129" height="0.564" x="3.387" y="4.233" rx="0.15" style="fill:#000;fill-opacity:1;stroke:none"/>
  </g>
  <rect width="0.847" height="1.129" x="9.313" y="8.184" rx="0.25" style="fill:#4747d8;fill-opacity:1;stroke:none"/>
  <rect rx="0.25" y="6.209" x="9.313" height="1.129" width="0.847" style="fill:#49d74a;fill-opacity:1;stroke:none"/>
  <rect width="0.847" height="1.129" x="9.313" y="4.233" rx="0.25" style="fill:#f13e3e;fill-opacity:1;stroke:none"/>
  <rect width="5.644" height="6.773" x="3.951" y="3.387" rx="1" style="fill:#f9f9f9;fill-opacity:1;stroke:none"/>
  <path d="m 4.948 3.387 c -0.554 0 -0.997 0.443 -0.997 0.997 l 0 4.78 c 0 0.554 0.443 0.997 0.997 0.997 l 0.132 0 0 -6.773 z" style="fill:#3a3a3a;fill-opacity:1;stroke:none"/>
  <rect rx="0.15" y="5.362" x="3.387" height="0.564" width="1.129" style="fill:#81584a;fill-opacity:1;stroke:none"/>
  <rect width="1.129" height="0.564" x="3.387" y="6.491" rx="0.15" style="fill:#81584a;fill-opacity:1;stroke:none"/>
  <rect rx="0.15" y="7.62" x="3.387" height="0.564" width="1.129" style="fill:#81584a;fill-opacity:1;stroke:none"/>
  <rect width="1.129" height="0.564" x="3.387" y="8.749" rx="0.15" style="fill:#81584a;fill-opacity:1;stroke:none"/>
  <rect width="1.129" height="0.564" x="3.387" y="4.233" rx="0.15" style="fill:#81584a;fill-opacity:1;stroke:none"/>
  <g transform="matrix(0,-0.51162791,0.51162791,0,4.3227028,4.5067992)" style="fill:#000;opacity:0.12;fill-opacity:1">
   <path d="m -8.933 3.411 1.055 0 1.444 4.324 1.421 -4.324 1.066 0 -1.981 5.692 c -0.08 0.233 -0.259 0.374 -0.503 0.376 -0.246 0.002 -0.43 -0.141 -0.511 -0.376 l -1.991 -5.692" style="stroke:none;fill-rule:evenodd"/>
   <path d="m -3.888 6.294 0 -1.619 c 0 -0.71 0.7 -1.274 1.446 -1.264 0.736 0.011 1.408 0.562 1.408 1.264 l 0 1.619 -0.697 0 0 -1.514 c 0 -0.371 -0.337 -0.64 -0.711 -0.644 -0.379 -0.007 -0.734 0.266 -0.734 0.644 l 0 1.514 -0.711 0" style="stroke:none;fill-rule:evenodd"/>
   <path d="m -1.031 9.479 -1.607 0 c -0.703 0 -1.265 -0.705 -1.254 -1.458 0.001 -0.74 0.558 -1.417 1.254 -1.417 l 1.607 0 0 0.7 -1.503 0 c -0.368 0 -0.633 0.341 -0.64 0.717 -0.007 0.384 0.264 0.741 0.64 0.741 l 1.503 0 0 0.717" style="stroke:none;fill-rule:evenodd"/>
  </g>
  <g transform="matrix(0,-0.51162791,0.51162791,0,4.0404805,4.2245181)">
   <path d="m -8.933 3.411 1.055 0 1.444 4.324 1.421 -4.324 1.066 0 -1.981 5.692 c -0.08 0.233 -0.259 0.374 -0.503 0.376 -0.246 0.002 -0.43 -0.141 -0.511 -0.376 l -1.991 -5.692" style="fill:#f13e3e;fill-opacity:1;stroke:none;fill-rule:evenodd"/>
   <path d="m -3.888 6.294 0 -1.619 c 0 -0.71 0.7 -1.274 1.446 -1.264 0.736 0.011 1.408 0.562 1.408 1.264 l 0 1.619 -0.697 0 0 -1.514 c 0 -0.371 -0.337 -0.64 -0.711 -0.644 -0.379 -0.007 -0.734 0.266 -0.734 0.644 l 0 1.514 -0.711 0" style="fill:#49d74a;fill-opacity:1;stroke:none;fill-rule:evenodd"/>
   <path d="m -1.031 9.479 -1.607 0 c -0.703 0 -1.265 -0.705 -1.254 -1.458 0.001 -0.74 0.558 -1.417 1.254 -1.417 l 1.607 0 0 0.7 -1.503 0 c -0.368 0 -0.633 0.341 -0.64 0.717 -0.007 0.384 0.264 0.741 0.64 0.741 l 1.503 0 0 0.717" style="fill:#4747d8;fill-opacity:1;stroke:none;fill-rule:evenodd"/>
  </g>
 </g>
</svg>
